packages/icons/src/text-none.svg

<svg width="15" height="15" viewBox="0 0 15 15" fill="none" xmlns="http://www.w3.org/2000/svg">
  <path
    fill-rule="evenodd"
    clip-rule="evenodd"
    d="M13.3536 2.35355C13.5488 2.15829 13.5488 1.84171 13.3536 1.64645C13.1583 1.45118 12.8417 1.45118 12.6464 1.64645L11.9291 2.36383C11.9159 2.32246 11.897 2.28368 11.8732 2.24845C11.7923 2.12875 11.6554 2.05005 11.5001 2.05005H3.50005C3.29909 2.05005 3.1289 2.18178 3.07111 2.3636C3.05743 2.40665 3.05005 2.45249 3.05005 2.50007V4.50001C3.05005 4.74854 3.25152 4.95001 3.50005 4.95001C3.74858 4.95001 3.95005 4.74854 3.95005 4.50001V2.95005H6.95006V7.34284L1.64645 12.6464C1.45118 12.8417 1.45118 13.1583 1.64645 13.3536C1.84171 13.5488 2.15829 13.5488 2.35355 13.3536L6.95006 8.75705V12.0501H5.7544C5.50587 12.0501 5.3044 12.2515 5.3044 12.5001C5.3044 12.7486 5.50587 12.9501 5.7544 12.9501H9.2544C9.50293 12.9501 9.7044 12.7486 9.7044 12.5001C9.7044 12.2515 9.50293 12.0501 9.2544 12.0501H8.05006V7.65705L13.3536 2.35355ZM8.05006 6.24284L11.0501 3.24283V2.95005H8.05006V6.24284Z"
    fill="currentColor"
  />
</svg>

<svg xmlns="http://www.w3.org/2000/svg" width="15" height="15" fill="none"><path fill="currentColor" fill-rule="evenodd" d="M13.354 2.354a.5.5 0 0 0-.708-.708l-.717.718a.45.45 0 0 0-.429-.314h-8a.45.45 0 0 0-.45.45v2a.45.45 0 1 0 .9 0V2.95h3v4.393l-5.304 5.303a.5.5 0 0 0 .708.708L6.95 8.757v3.293H5.754a.45.45 0 1 0 0 .9h3.5a.45.45 0 0 0 0-.9H8.05V7.657zM8.05 6.243l3-3V2.95h-3z" clip-rule="evenodd"/></svg>
